Obsidian-SemiLight/actions/24s/state-fork.svg

<svg viewBox="0 0 24 24" xmlns="http://www.w3.org/2000/svg"><path d="m5.5 4a1.4999979 1.5 0 0 0 -1.5 1.5 1.4999979 1.5 0 0 0 1 1.4121094v6.0878906 4.087891a1.4999979 1.5 0 0 0 -1 1.412109 1.4999979 1.5 0 0 0 1.5 1.5 1.4999979 1.5 0 0 0 1.5-1.5 1.4999979 1.5 0 0 0 -1-1.412109v-4.087891a1 1 0 0 1 1-1h10a2 2 0 0 0 2-2v-3.0878906a1.4999979 1.5 0 0 0 1-1.4121094 1.4999979 1.5 0 0 0 -1.5-1.5 1.4999979 1.5 0 0 0 -1.5 1.5 1.4999979 1.5 0 0 0 1 1.4121094v3.0878906a1 1 0 0 1 -1 1h-10a2 2 0 0 0 -1 .269531v-4.3574216a1.4999979 1.5 0 0 0 1-1.4121094 1.4999979 1.5 0 0 0 -1.5-1.5zm0 1a.5.5 0 0 1 .5.5.5.5 0 0 1 -.5.5.5.5 0 0 1 -.5-.5.5.5 0 0 1 .5-.5zm13 0a.5.5 0 0 1 .5.5.5.5 0 0 1 -.5.5.5.5 0 0 1 -.5-.5.5.5 0 0 1 .5-.5zm-1.5 10v2h-2v1h2v2h1v-2h2v-1h-2v-2zm-11.5 3a.5.5 0 0 1 .5.5.5.5 0 0 1 -.5.5.5.5 0 0 1 -.5-.5.5.5 0 0 1 .5-.5z" fill="#4d4d4d"/></svg>

<svg xmlns="http://www.w3.org/2000/svg" viewBox="0 0 24 24">
  <defs id="defs3051">
    <style type="text/css" id="current-color-scheme">
      .ColorScheme-Text {
        color:#4d4d4d;
      }
      </style>
  </defs>
 <path style="fill:currentColor;fill-opacity:1;stroke:none" 
     d="M 5.5 4 A 1.4999979 1.5 0 0 0 4 5.5 A 1.4999979 1.5 0 0 0 5 6.9121094 L 5 13 L 5 17.087891 A 1.4999979 1.5 0 0 0 4 18.5 A 1.4999979 1.5 0 0 0 5.5 20 A 1.4999979 1.5 0 0 0 7 18.5 A 1.4999979 1.5 0 0 0 6 17.087891 L 6 13 A 1 1 0 0 1 7 12 L 17 12 A 2 2 0 0 0 19 10 L 19 6.9121094 A 1.4999979 1.5 0 0 0 20 5.5 A 1.4999979 1.5 0 0 0 18.5 4 A 1.4999979 1.5 0 0 0 17 5.5 A 1.4999979 1.5 0 0 0 18 6.9121094 L 18 10 A 1 1 0 0 1 17 11 L 7 11 A 2 2 0 0 0 6 11.269531 L 6 6.9121094 A 1.4999979 1.5 0 0 0 7 5.5 A 1.4999979 1.5 0 0 0 5.5 4 z M 5.5 5 A 0.5 0.5 0 0 1 6 5.5 A 0.5 0.5 0 0 1 5.5 6 A 0.5 0.5 0 0 1 5 5.5 A 0.5 0.5 0 0 1 5.5 5 z M 18.5 5 A 0.5 0.5 0 0 1 19 5.5 A 0.5 0.5 0 0 1 18.5 6 A 0.5 0.5 0 0 1 18 5.5 A 0.5 0.5 0 0 1 18.5 5 z M 17 15 L 17 17 L 15 17 L 15 18 L 17 18 L 17 20 L 18 20 L 18 18 L 20 18 L 20 17 L 18 17 L 18 15 L 17 15 z M 5.5 18 A 0.5 0.5 0 0 1 6 18.5 A 0.5 0.5 0 0 1 5.5 19 A 0.5 0.5 0 0 1 5 18.5 A 0.5 0.5 0 0 1 5.5 18 z "
     class="ColorScheme-Text"
     />
</svg>
